X: 1390
T: An Seanduine Dóite
R: jig
M: 6/8
K: Dmajor
DFA BAA|DFE F2E|DEF ABA|DFD E2D|
DFA BAA|BAB d2e|fed BdA|BAF E2D:|
ABc ded|DFA B2A|ABd ede|fed B2A|
ABA Bdd|DFA d2e|fed BdA|BAF E2D:|

